X: 493
T: Bobby Caseys
R: Jig
S: Johnny B. Connolly, (Bridgetown)
S: Session tape: Brid Harper &amp; Dermot Byrne
N: Posted to the woodenflute mailing list March 2002
Z: transcribed by Jim DiCarlo
M: 6/8
K: C
B | c2G Egc | ded dcB | c2A GEC | ~E3 ~D3 |
| ~C3 EDE | CEG AGE | GAc dcB | ced c2 :||
d | ece dBd | cea geg | a2g ede | gab a2b |
| cba bag | age dBG | ABc dBG | ced c2d |
| ece dBd | cea g2d  | c2A GEC | ~E3 ~D3 |
| ~C3 EDE | CEG AGE | GAc dcB | ced c2 ||
<end>
<start>
